src/assets/img/icon_pin.svg

<svg fill="none" height="32" viewBox="0 0 32 32" width="32" xmlns="http://www.w3.org/2000/svg" xmlns:xlink="http://www.w3.org/1999/xlink"><clipPath id="a"><path d="m0 0h32v32h-32z"/></clipPath><g clip-path="url(#a)"><path d="m19.5144.00000183c.1505-.00026883.2996.02913187.4387.08652127.1392.0573889.2656.1416419.3722.2479409l11.3393 11.339636c.2148.2148.3354.5061.3354.8098 0 .3038-.1206.595-.3354.8098-1.0995 1.0996-2.4557 1.3471-3.443 1.3471-.4055 0-.7674-.0413-1.0537-.0894l-7.1793 7.1795c.1881.7617.3108 1.538.3665 2.3206.1054 1.6082-.0733 3.8647-1.6494 5.4408-.2148.2147-.506.3353-.8098.3353-.3037 0-.595-.1206-.8097-.3353l-6.4806-6.4785-7.28929 7.2894c-.44671.4467-2.792459 2.0664-3.2391606 1.6196-.4467014-.4467 1.1728806-2.7948 1.6195806-3.2392l7.28924-7.2895-6.47831-6.4807c-.21473-.2148-.33535-.5061-.33535-.8098 0-.3038.12062-.5951.33535-.8099 1.57606-1.5761 3.83247-1.757 5.44059-1.6494.78256.0558 1.55892.1784 2.32055.3666l7.1793-7.17723c-.0577-.34914-.0883-.70221-.0916-1.05607 0-.98506.2474-2.34124 1.3492-3.443136.2147-.214122.5055-.33439776.8087-.33446217z" fill="#5c95ff"/></g></svg>

<svg width="32" height="32" viewBox="0 0 32 32" fill="none" xmlns="http://www.w3.org/2000/svg">
<g clip-path="url(#clip0_518_401)">
<path d="M19.5144 1.82693e-06C19.6649 -0.000266996 19.814 0.0291337 19.9531 0.0865231C20.0923 0.143912 20.2187 0.228165 20.3253 0.334464L31.6646 11.6741C31.8794 11.8889 32 12.1802 32 12.4839C32 12.7877 31.8794 13.0789 31.6646 13.2937C30.5651 14.3933 29.2089 14.6408 28.2216 14.6408C27.8161 14.6408 27.4542 14.5995 27.1679 14.5514L19.9886 21.7309C20.1767 22.4926 20.2994 23.2689 20.3551 24.0515C20.4605 25.6597 20.2818 27.9162 18.7057 29.4923C18.4909 29.707 18.1997 29.8276 17.8959 29.8276C17.5922 29.8276 17.3009 29.707 17.0862 29.4923L10.6056 23.0138L3.31631 30.3032C2.8696 30.7499 0.523851 32.3696 0.0771494 31.9228C-0.369552 31.4761 1.25003 29.128 1.69673 28.6836L8.98597 21.3941L2.50766 14.9134C2.29293 14.6986 2.17231 14.4073 2.17231 14.1036C2.17231 13.7998 2.29293 13.5085 2.50766 13.2937C4.08372 11.7176 6.34013 11.5367 7.94825 11.6443C8.73081 11.7001 9.50717 11.8227 10.2688 12.0109L17.4481 4.83367C17.3904 4.48453 17.3598 4.13146 17.3565 3.7776C17.3565 2.79254 17.6039 1.43636 18.7057 0.334464C18.9204 0.120342 19.2112 6.6243e-05 19.5144 1.82693e-06Z" fill="#5C95FF"/>
</g>
<defs>
<clipPath id="clip0_518_401">
<rect width="32" height="32" fill="white"/>
</clipPath>
</defs>
</svg>
